src/images/crypto-icon-svg/mln.svg

<svg xmlns="http://www.w3.org/2000/svg" width="32" height="32" viewBox="0 0 32 32">
  <g fill="none" fill-rule="evenodd">
    <circle cx="16" cy="16" r="16" fill="#0B1529"/>
    <path fill="#FFF" d="M8.62721993,20.123718 L13.8986784,23.2155339 L13.8986784,24.9446823 L7,20.8857645 L7,10.2952548 L16,5 L25,10.2952548 L25,20.8857645 L18.1013216,24.9446823 L18.1013216,23.2155339 L23.3724388,20.1239181 L22.0118842,19.3384015 L22.1902983,19.0293792 L23.5330396,19.8046113 L23.5330396,11.9525483 L16.7136564,15.9947276 L16.7136564,25.7611313 L16.7136564,27.5553603 L16,28 L15.2863436,27.5553603 L15.2863436,25.7611313 L15.2863436,15.9947276 L8.46696035,11.9525483 L8.46696035,19.8042142 L9.80901381,19.0293792 L9.98742791,19.3384015 L8.62721993,20.123718 Z M15.8017621,6.81404545 L9.18061674,10.6994728 L16,14.741652 L22.8193833,10.6994728 L16.1585903,6.79077942 L16.1585903,8.39543058 L15.8017621,8.39543058 L15.8017621,6.81404545 Z M15.8017621,9.4059754 L16.1585903,9.4059754 L16.1585903,11.0632689 L15.8017621,11.0632689 L15.8017621,9.4059754 Z M15.8017621,12.0738137 L16.1585903,12.0738137 L16.1585903,13.7311072 L15.9801762,13.8119508 L15.8017621,13.7311072 L15.8017621,12.0738137 Z M21.3620751,18.5241068 L21.183661,18.8331291 L19.7484027,18.0044824 L19.9268168,17.6954601 L21.3620751,18.5241068 Z M19.0965822,17.1901877 L18.9181681,17.49921 L17.4829098,16.6705632 L17.5021043,16.4756303 L17.6613239,16.3615409 L19.0965822,17.1901877 Z M10.637237,18.5241068 L12.0724952,17.6954601 L12.2509093,18.0044824 L10.8156511,18.8331291 L10.637237,18.5241068 Z M12.9027299,17.1901877 L14.3379881,16.3615409 L14.4972078,16.4756303 L14.5164022,16.6705632 L13.081144,17.49921 L12.9027299,17.1901877 Z"/>
  </g>
</svg>

<svg xmlns="http://www.w3.org/2000/svg" width="32" height="32"><g fill="none" fill-rule="evenodd"><circle cx="16" cy="16" r="16" fill="#0B1529"/><path fill="#FFF" d="M8.627 20.124l5.272 3.092v1.729L7 20.885v-10.59L16 5l9 5.295v10.59l-6.899 4.06v-1.73l5.271-3.091-1.36-.786.178-.309 1.343.776v-7.852l-6.82 4.042v11.56L16 28l-.714-.445v-11.56l-6.819-4.042v7.851l1.342-.775.178.31-1.36.785zm7.175-13.31L9.18 10.699 16 14.742l6.82-4.043-6.661-3.908v1.604h-.357V6.814zm0 2.592h.357v1.657h-.357V9.406zm0 2.668h.357v1.657l-.179.081-.178-.08v-1.658zm5.56 6.45l-.178.31-1.436-.83.179-.309 1.435.83zm-2.265-1.334l-.179.31-1.435-.83.02-.194.158-.114 1.436.828zm-8.46 1.334l1.435-.829.179.31-1.435.828-.179-.309zm2.266-1.334l1.435-.828.16.114.018.195-1.435.828-.178-.309z"/></g></svg>
